X:634
T: IN DIESER NACHT VON DEINER LIEB
N: E1994
O: Europa, Mitteleuropa, Deutschland
R: geistlich, Dank -, Lob - Lied; Abend - Lied
M: 4/4
L: 1/8
K: D
D2 | F2G2A2A2 | B2B2A2G2 | F6
FG | A2A2G2F2 | E6
A2 | d2c2B4 | A2A2B2c2 | d6
A2 | B2B2A2G2 | F6
FG | A2A2G2F2 | E6
A2 | G2F2E4 | D4z2

